; HEADER_BLOCK_START
; generated by OrcaSlicer 2.2.0 on 2024-12-28 at 22:25:22
; total layer number: 15
; filament_density: 1.24
; filament_diameter: 1.75
; max_z_height: 3.00
; HEADER_BLOCK_END

; THUMBNAIL_BLOCK_START

;
; THUMBNAIL_BLOCK_END

; THUMBNAIL_BLOCK_START

;
; THUMBNAIL_BLOCK_END

; external perimeters extrusion width = 0.40mm
; perimeters extrusion width = 0.45mm
; infill extrusion width = 0.45mm
; solid infill extrusion width = 0.40mm
; top infill extrusion width = 0.40mm
; first layer extrusion width = 0.50mm

; external perimeters extrusion width = 0.40mm
; perimeters extrusion width = 0.45mm
; infill extrusion width = 0.45mm
; solid infill extrusion width = 0.40mm
; top infill extrusion width = 0.40mm
; first layer extrusion width = 0.50mm

; EXECUTABLE_BLOCK_START
M73 P0 R50
M201 X500 Y500 Z500 E5000
M203 X500 Y500 Z10 E60
M204 P500 R1000 T500
M205 X8.00 Y8.00 Z0.40 E5.00 ; sets the jerk limits, mm/sec
;TYPE:Custom
G90 ; use absolute coordinates
M83 ; extruder relative mode
M140 S60 ; set final bed temp
M104 S150 ; set temporary nozzle temp to prevent oozing during homing
G4 S10 ; allow partial nozzle warmup
G28 ; home all axis
M420 S1 ;Enable mesh leveling
G1 Z50 F240
G1 X2 Y10 F3000
M104 S200 ; set final nozzle temp
M190 S60 ; wait for bed temp to stabilize
M109 S200 ; wait for nozzle temp to stabilize
G1 Z0.28 F240
G92 E0
G1 Y140 E10 F1500 ; prime the nozzle
G1 X2.3 F5000
M73 P1 R50
G92 E0
M73 P1 R50
G1 Y10 E10 F1200 ; prime the nozzle
G92 E0
G90
G21
M83 ; use relative distances for extrusion
; filament start gcode
M106 S0
;LAYER_CHANGE
;Z:0.2
;HEIGHT:0.2
;BEFORE_LAYER_CHANGE
;0.2
G92 E0

G1 E-.8 F1800
;_SET_FAN_SPEED_CHANGING_LAYER
M204 S250
G1 Z.6 F9000
G1 X98.605 Y36.847
G1 Z.6
G1 Z.2
G1 E.8 F1800
;TYPE:Skirt
;WIDTH:0.5
G1 F3000
G1 X98.606 Y11.714 E.93609
G1 X98.709 Y10.968 E.02806
G1 X98.931 Y10.238 E.02841
G1 X99.26 Y9.56 E.02806
G1 X99.655 Y8.985 E.02599
G1 X100.667 Y8.038 E.05163
G1 X101.286 Y7.672 E.02679
G1 X102.047 Y7.373 E.03046
G1 X103.369 Y7.172 E.0498
G1 X114.577 Y7.171 E.41745
G1 X116.766 Y7.177 E.08155
G1 X117.466 Y7.255 E.02622
G1 X118.48 Y7.564 E.03951
G1 X119.347 Y8.048 E.03697
G1 X120.236 Y8.854 E.04469
G1 X120.883 Y9.822 E.04334
G1 X121.287 Y10.951 E.04469
G1 X121.401 Y11.891 E.03525
G1 X121.388 Y208.364 E7.31789
G1 X121.269 Y209.125 E.0287
M73 P1 R49
M73 P1 R49
G1 X121.058 Y209.791 E.02599
G1 X120.69 Y210.523 E.03055
G1 X120.248 Y211.133 E.02806
G1 X119.708 Y211.673 E.02842
G1 X119.098 Y212.115 E.02806
G1 X118.378 Y212.479 E.03006
G1 X117.72 Y212.69 E.02574
G1 X116.575 Y212.829 E.04296
G1 X103.139 Y212.82 E.50043
G1 X102.296 Y212.694 E.03176
G1 X101.388 Y212.377 E.03582
G1 X100.653 Y211.952 E.03164
G1 X99.935 Y211.335 E.03525
G1 X99.352 Y210.59 E.03525
G1 X98.925 Y209.746 E.03525
G1 X98.671 Y208.834 E.03524
G1 X98.596 Y208 E.03119
G1 X98.605 Y36.887 E6.37332
; printing object led_strip_4x_8mm.stl id:1735058100240 copy 0
G1 E-.56 F1800
;WIPE_START
G1 F3000
G1 X98.605 Y35.887 E-.24
;WIPE_END
G1 Z.6 F9000
G1 X117.25 Y209.254 Z.6
G1 Z.2
G1 E.8 F1800
;TYPE:Inner wall
;WIDTH:0.499999
G1 F900
G1 X116.745 Y209.423 E.01986
G1 X114.435 Y209.416 E.08604
G1 X114.028 Y209.322 E.01556
G1 X113.672 Y209.1 E.0156
G1 X113.386 Y208.795 E.0156
G1 X113.213 Y208.413 E.0156
G1 X113.139 Y207.943 E.01772
G1 X113.139 Y12.189 E7.29109
G1 X113.203 Y11.611 E.02166
M73 P2 R49
M73 P2 R49
G1 X113.33 Y11.305 E.01235
G1 X113.593 Y10.959 E.01619
G1 X113.873 Y10.756 E.01287
G1 X114.405 Y10.577 E.02091
G1 X116.55 Y10.566 E.07989
G1 X117.143 Y10.694 E.02262
G1 X117.482 Y10.894 E.01466
G1 X117.756 Y11.205 E.01542
G1 X117.944 Y11.585 E.01577
G1 X118.011 Y12.064 E.01802
G1 X118 Y208.072 E7.30056
G1 X117.882 Y208.57 E.01905
G1 X117.677 Y208.904 E.01461
G1 X117.281 Y209.229 E.01906
G1 X117.588 Y209.588 F9000
G1 F900
G1 X117.405 Y209.684 E.00769
G1 X116.781 Y209.88 E.02439
G1 X114.388 Y209.871 E.08912
G1 X113.852 Y209.746 E.02049
G1 X113.382 Y209.454 E.02062
G1 X113.004 Y209.05 E.0206
G1 X112.776 Y208.546 E.02061
G1 X112.682 Y207.966 E.02189
G1 X112.682 Y12.048 E7.2972
G1 X112.759 Y11.491 E.02093
G1 X112.931 Y11.076 E.01674
G1 X113.256 Y10.646 E.02009
G1 X113.471 Y10.472 E.0103
G1 X113.831 Y10.285 E.01509
G1 X114.369 Y10.12 E.02097
G1 X116.416 Y10.11 E.07624
G1 X116.905 Y10.161 E.01831
G1 X117.319 Y10.272 E.01597
G1 X117.774 Y10.539 E.01964
G1 X118.14 Y10.958 E.02072
G1 X118.383 Y11.451 E.0205
G1 X118.468 Y12.064 E.02303
G1 X118.468 Y206.994 E7.2604
G1 X118.438 Y208.312 E.04911
M73 P3 R48
M73 P3 R48
G1 X118.302 Y208.759 E.01738
G1 X118.033 Y209.197 E.01914
G1 X117.64 Y209.561 E.01996
G1 X117.624 Y209.569 E.00069
G1 X117.769 Y210.012 F9000
;TYPE:Outer wall
G1 F900
G1 X117.691 Y210.067 E.00357
G1 X117.151 Y210.261 E.02135
G1 X116.816 Y210.337 E.0128
G1 X114.715 Y210.349 E.07826
G1 X114.115 Y210.303 E.02244
G1 X113.676 Y210.17 E.01707
G1 X113.27 Y209.953 E.01715
G1 X112.914 Y209.661 E.01715
G1 X112.622 Y209.305 E.01715
G1 X112.405 Y208.899 E.01715
G1 X112.271 Y208.458 E.01715
G1 X112.225 Y207.988 E.01759
G1 X112.225 Y12.016 E7.2992
G1 X112.314 Y11.37 E.02429
G1 X112.531 Y10.846 E.02112
G1 X113.04 Y10.227 E.02986
G1 X113.462 Y9.932 E.01919
G1 X113.999 Y9.738 E.02125
G1 X114.334 Y9.663 E.01278
G1 X116.621 Y9.652 E.0852
G1 X117.269 Y9.756 E.02445
G1 X117.495 Y9.85 E.0091
G1 X117.851 Y10.041 E.01505
G1 X118.222 Y10.341 E.01775
G1 X118.516 Y10.697 E.01722
G1 X118.733 Y11.103 E.01713
G1 X118.867 Y11.542 E.0171
G1 X118.925 Y12.064 E.01956
G1 X118.925 Y207.881 E7.29342
G1 X118.889 Y208.4 E.01938
M73 P4 R48
M73 P4 R48
G1 X118.722 Y208.948 E.02133
G1 X118.39 Y209.489 E.02368
G1 X118.012 Y209.839 E.01917
G1 X117.802 Y209.988 E.00962
G1 E-.56 F1800
;WIPE_START
G1 F900
G1 X117.691 Y210.067 E-.0326
G1 X117.151 Y210.261 E-.1376
G1 X116.868 Y210.325 E-.0698
;WIPE_END
G1 Z.6 F9000
G1 X116.858 Y10.755 Z.6
G1 Z.2
G1 E.8 F1800
;TYPE:Bottom surface
;WIDTH:0.500072
G1 F1200
G1 X117.415 Y11.312 E.02932
G1 X117.533 Y11.488 E.00791
G1 X117.614 Y11.685 E.00793
G1 X117.663 Y11.93 E.0093
G1 X117.668 Y12.211 E.0105
G1 X116.366 Y10.91 E.06857
G1 X115.723 Y10.913 E.02396
G1 X117.668 Y12.858 E.10246
G1 X117.668 Y13.505 E.02408
G1 X115.08 Y10.916 E.13635
G1 X114.438 Y10.921 E.02391
G1 X117.668 Y14.151 E.17017
G1 X117.668 Y14.798 E.02408
G1 X113.974 Y11.103 E.19462
G1 X113.842 Y11.198 E.00605
G1 X113.661 Y11.437 E.01117
G1 X117.668 Y15.444 E.21112
G1 X117.668 Y16.091 E.02408
G1 X113.506 Y11.928 E.21927
G1 X113.482 Y12.102 E.00654
G1 X113.482 Y12.551 E.01672
G1 X117.668 Y16.737 E.22053
G1 X117.668 Y17.384 E.02408
G1 X113.482 Y13.197 E.22053
G1 X113.482 Y13.844 E.02408
G1 X117.668 Y18.03 E.22053
G1 X117.668 Y18.677 E.02408
G1 X113.482 Y14.491 E.22053
G1 X113.482 Y15.137 E.02408
G1 X117.668 Y19.323 E.22053
G1 X117.668 Y19.97 E.02408
G1 X113.482 Y15.784 E.22053
G1 X113.482 Y16.43 E.02408
G1 X117.668 Y20.616 E.22053
G1 X117.668 Y21.263 E.02408
G1 X113.482 Y17.077 E.22053
G1 X113.482 Y17.723 E.02408
G1 X117.668 Y21.909 E.22053
G1 X117.668 Y22.556 E.02408
G1 X113.482 Y18.37 E.22053
G1 X113.482 Y19.016 E.02408
G1 X117.668 Y23.202 E.22053
G1 X117.668 Y23.849 E.02408
G1 X113.482 Y19.663 E.22053
G1 X113.482 Y20.309 E.02408
G1 X117.668 Y24.495 E.22053
G1 X117.668 Y25.142 E.02408
G1 X113.482 Y20.956 E.22053
G1 X113.482 Y21.602 E.02408
G1 X117.668 Y25.788 E.22053
G1 X117.668 Y26.435 E.02408
G1 X113.482 Y22.249 E.22053
G1 X113.482 Y22.895 E.02408
G1 X117.668 Y27.081 E.22053
G1 X117.668 Y27.728 E.02408
G1 X113.482 Y23.542 E.22053
G1 X113.482 Y24.188 E.02408
G1 X117.668 Y28.374 E.22053
G1 X117.668 Y29.021 E.02408
G1 X113.482 Y24.835 E.22053
G1 X113.482 Y25.481 E.02408
G1 X117.668 Y29.667 E.22053
G1 X117.668 Y30.314 E.02408
G1 X113.482 Y26.128 E.22053
G1 X113.482 Y26.774 E.02408
G1 X117.668 Y30.96 E.22053
G1 X117.668 Y31.607 E.02408
G1 X113.482 Y27.421 E.22053
G1 X113.482 Y28.067 E.02408
G1 X117.668 Y32.253 E.22053
G1 X117.668 Y32.9 E.02408
G1 X113.482 Y28.714 E.22053
G1 X113.482 Y29.36 E.02408
G1 X117.668 Y33.546 E.22053
G1 X117.668 Y34.193 E.02408
G1 X113.482 Y30.007 E.22053
G1 X113.482 Y30.653 E.02408
G1 X117.668 Y34.839 E.22053
G1 X117.668 Y35.486 E.02408
G1 X113.482 Y31.3 E.22053
G1 X113.482 Y31.946 E.02408
G1 X117.668 Y36.132 E.22053
G1 X117.668 Y36.779 E.02408
G1 X113.482 Y32.593 E.22053
G1 X113.482 Y33.239 E.02408
G1 X117.668 Y37.425 E.22053
G1 X117.668 Y38.072 E.02408
G1 X113.482 Y33.886 E.22053
G1 X113.482 Y34.532 E.02408
G1 X117.668 Y38.718 E.22053
G1 X117.668 Y39.365 E.02408
G1 X113.482 Y35.179 E.22053
G1 X113.482 Y35.825 E.02408
G1 X117.668 Y40.011 E.22053
G1 X117.668 Y40.658 E.02408
G1 X113.482 Y36.472 E.22053
G1 X113.482 Y37.118 E.02408
G1 X117.668 Y41.304 E.22053
G1 X117.668 Y41.951 E.02408
G1 X113.482 Y37.765 E.22053
G1 X113.482 Y38.411 E.02408
G1 X117.668 Y42.597 E.22053
G1 X117.668 Y43.244 E.02408
G1 X113.482 Y39.058 E.22053
G1 X113.482 Y39.704 E.02408
G1 X117.668 Y43.89 E.22053
G1 X117.668 Y44.537 E.02408
G1 X113.482 Y40.351 E.22053
M73 P5 R48
M73 P5 R48
G1 X113.482 Y40.997 E.02408
G1 X117.668 Y45.184 E.22053
G1 X117.668 Y45.83 E.02408
G1 X113.482 Y41.644 E.22053
G1 X113.482 Y42.29 E.02408
G1 X117.668 Y46.477 E.22053
G1 X117.668 Y47.123 E.02408
G1 X113.482 Y42.937 E.22053
G1 X113.482 Y43.583 E.02408
G1 X117.668 Y47.77 E.22053
G1 X117.668 Y48.416 E.02408
G1 X113.482 Y44.23 E.22053
G1 X113.482 Y44.877 E.02408
G1 X117.668 Y49.063 E.22053
G1 X117.668 Y49.709 E.02408
G1 X113.482 Y45.523 E.22053
G1 X113.482 Y46.17 E.02408
G1 X117.668 Y50.356 E.22053
G1 X117.668 Y51.002 E.02408
G1 X113.482 Y46.816 E.22053
G1 X113.482 Y47.463 E.02408
G1 X117.668 Y51.649 E.22053
G1 X117.668 Y52.295 E.02408
G1 X113.482 Y48.109 E.22053
G1 X113.482 Y48.756 E.02408
G1 X117.668 Y52.942 E.22053
G1 X117.668 Y53.588 E.02408
G1 X113.482 Y49.402 E.22053
G1 X113.482 Y50.049 E.02408
G1 X117.668 Y54.235 E.22053
G1 X117.668 Y54.881 E.02408
G1 X113.482 Y50.695 E.22053
G1 X113.482 Y51.342 E.02408
G1 X117.668 Y55.528 E.22053
G1 X117.668 Y56.174 E.02408
G1 X113.482 Y51.988 E.22053
G1 X113.482 Y52.635 E.02408
G1 X117.668 Y56.821 E.22053
G1 X117.668 Y57.467 E.02408
G1 X113.482 Y53.281 E.22053
G1 X113.482 Y53.928 E.02408
G1 X117.668 Y58.114 E.22053
G1 X117.668 Y58.76 E.02408
G1 X113.482 Y54.574 E.22053
G1 X113.482 Y55.221 E.02408
G1 X117.668 Y59.407 E.22053
G1 X117.668 Y60.053 E.02408
M73 P5 R47
M73 P5 R47
G1 X113.482 Y55.867 E.22053
G1 X113.482 Y56.514 E.02408
G1 X117.668 Y60.7 E.22053
G1 X117.668 Y61.346 E.02408
G1 X113.482 Y57.16 E.22053
G1 X113.482 Y57.807 E.02408
G1 X117.668 Y61.993 E.22053
G1 X117.668 Y62.639 E.02408
G1 X113.482 Y58.453 E.22053
G1 X113.482 Y59.1 E.02408
G1 X117.668 Y63.286 E.22053
G1 X117.668 Y63.932 E.02408
G1 X113.482 Y59.746 E.22053
G1 X113.482 Y60.393 E.02408
G1 X117.668 Y64.579 E.22053
G1 X117.668 Y65.225 E.02408
G1 X113.482 Y61.039 E.22053
G1 X113.482 Y61.686 E.02408
G1 X117.668 Y65.872 E.22053
G1 X117.668 Y66.518 E.02408
G1 X113.482 Y62.332 E.22053
G1 X113.482 Y62.979 E.02408
G1 X117.668 Y67.165 E.22053
G1 X117.668 Y67.811 E.02408
G1 X113.482 Y63.625 E.22053
G1 X113.482 Y64.272 E.02408
G1 X117.668 Y68.458 E.22053
G1 X117.668 Y69.104 E.02408
G1 X113.482 Y64.918 E.22053
G1 X113.482 Y65.565 E.02408
G1 X117.668 Y69.751 E.22053
G1 X117.668 Y70.397 E.02408
G1 X113.482 Y66.211 E.22053
G1 X113.482 Y66.858 E.02408
G1 X117.668 Y71.044 E.22053
G1 X117.668 Y71.69 E.02408
G1 X113.482 Y67.504 E.22053
G1 X113.482 Y68.151 E.02408
G1 X117.668 Y72.337 E.22053
G1 X117.668 Y72.983 E.02408
G1 X113.482 Y68.797 E.22053
G1 X113.482 Y69.444 E.02408
G1 X117.668 Y73.63 E.22053
G1 X117.668 Y74.276 E.02408
G1 X113.482 Y70.09 E.22053
G1 X113.482 Y70.737 E.02408
G1 X117.668 Y74.923 E.22053
G1 X117.668 Y75.57 E.02408
G1 X113.482 Y71.383 E.22053
G1 X113.482 Y72.03 E.02408
G1 X117.668 Y76.216 E.22053
G1 X117.668 Y76.863 E.02408
G1 X113.482 Y72.676 E.22053
G1 X113.482 Y73.323 E.02408
G1 X117.668 Y77.509 E.22053
G1 X117.668 Y78.156 E.02408
G1 X113.482 Y73.969 E.22053
G1 X113.482 Y74.616 E.02408
G1 X117.668 Y78.802 E.22053
G1 X117.668 Y79.449 E.02408
G1 X113.482 Y75.263 E.22053
G1 X113.482 Y75.909 E.02408
G1 X117.668 Y80.095 E.22053
G1 X117.668 Y80.742 E.02408
G1 X113.482 Y76.556 E.22053
G1 X113.482 Y77.202 E.02408
G1 X117.668 Y81.388 E.22053
G1 X117.668 Y82.035 E.02408
G1 X113.482 Y77.849 E.22053
G1 X113.482 Y78.495 E.02408
G1 X117.668 Y82.681 E.22053
G1 X117.668 Y83.328 E.02408
G1 X113.482 Y79.142 E.22053
G1 X113.482 Y79.788 E.02408
G1 X117.668 Y83.974 E.22053
G1 X117.668 Y84.621 E.02408
G1 X113.482 Y80.435 E.22053
G1 X113.482 Y81.081 E.02408
G1 X117.668 Y85.267 E.22053
G1 X117.668 Y85.914 E.02408
G1 X113.482 Y81.728 E.22053
G1 X113.482 Y82.374 E.02408
G1 X117.668 Y86.56 E.22053
G1 X117.668 Y87.207 E.02408
G1 X113.482 Y83.021 E.22053
G1 X113.482 Y83.667 E.02408
G1 X117.668 Y87.853 E.22053
G1 X117.668 Y88.5 E.02408
G1 X113.482 Y84.314 E.22053
G1 X113.482 Y84.96 E.02408
G1 X117.668 Y89.146 E.22053
G1 X117.668 Y89.793 E.02408
G1 X113.482 Y85.607 E.22053
G1 X113.482 Y86.253 E.02408
G1 X117.668 Y90.439 E.22053
G1 X117.668 Y91.086 E.02408
G1 X113.482 Y86.9 E.22053
G1 X113.482 Y87.546 E.02408
G1 X117.668 Y91.732 E.22053
G1 X117.668 Y92.379 E.02408
G1 X113.482 Y88.193 E.22053
G1 X113.482 Y88.839 E.02408
G1 X117.668 Y93.025 E.22053
G1 X117.668 Y93.672 E.02408
G1 X113.482 Y89.486 E.22053
G1 X113.482 Y90.132 E.02408
G1 X117.668 Y94.318 E.22053
G1 X117.668 Y94.965 E.02408
G1 X113.482 Y90.779 E.22053
G1 X113.482 Y91.425 E.02408
G1 X117.668 Y95.611 E.22053
G1 X117.668 Y96.258 E.02408
G1 X113.482 Y92.072 E.22053
G1 X113.482 Y92.718 E.02408
G1 X117.668 Y96.904 E.22053
G1 X117.668 Y97.551 E.02408
G1 X113.482 Y93.365 E.22053
G1 X113.482 Y94.011 E.02408
M73 P6 R47
M73 P6 R47
G1 X117.668 Y98.197 E.22053
G1 X117.668 Y98.844 E.02408
G1 X113.482 Y94.658 E.22053
G1 X113.482 Y95.304 E.02408
G1 X117.668 Y99.49 E.22053
G1 X117.668 Y100.137 E.02408
G1 X113.482 Y95.951 E.22053
G1 X113.482 Y96.597 E.02408
G1 X117.668 Y100.783 E.22053
G1 X117.668 Y101.43 E.02408
G1 X113.482 Y97.244 E.22053
G1 X113.482 Y97.89 E.02408
G1 X117.668 Y102.076 E.22053
G1 X117.668 Y102.723 E.02408
G1 X113.482 Y98.537 E.22053
G1 X113.482 Y99.183 E.02408
G1 X117.668 Y103.369 E.22053
G1 X117.668 Y104.016 E.02408
G1 X113.482 Y99.83 E.22053
G1 X113.482 Y100.476 E.02408
G1 X117.668 Y104.662 E.22053
G1 X117.668 Y105.309 E.02408
G1 X113.482 Y101.123 E.22053
G1 X113.482 Y101.769 E.02408
G1 X117.668 Y105.956 E.22053
G1 X117.668 Y106.602 E.02408
G1 X113.482 Y102.416 E.22053
G1 X113.482 Y103.062 E.02408
G1 X117.668 Y107.249 E.22053
G1 X117.668 Y107.895 E.02408
G1 X113.482 Y103.709 E.22053
G1 X113.482 Y104.355 E.02408
G1 X117.668 Y108.542 E.22053
G1 X117.668 Y109.188 E.02408
G1 X113.482 Y105.002 E.22053
G1 X113.482 Y105.649 E.02408
G1 X117.668 Y109.835 E.22053
G1 X117.668 Y110.481 E.02408
G1 X113.482 Y106.295 E.22053
G1 X113.482 Y106.942 E.02408
G1 X117.668 Y111.128 E.22053
G1 X117.668 Y111.774 E.02408
G1 X113.482 Y107.588 E.22053
G1 X113.482 Y108.235 E.02408
G1 X117.668 Y112.421 E.22053
G1 X117.668 Y113.067 E.02408
G1 X113.482 Y108.881 E.22053
G1 X113.482 Y109.528 E.02408
G1 X117.668 Y113.714 E.22053
G1 X117.668 Y114.36 E.02408
G1 X113.482 Y110.174 E.22053
G1 X113.482 Y110.821 E.02408
G1 X117.668 Y115.007 E.22053
G1 X117.668 Y115.653 E.02408
G1 X113.482 Y111.467 E.22053
G1 X113.482 Y112.114 E.02408
G1 X117.668 Y116.3 E.22053
G1 X117.668 Y116.946 E.02408
G1 X113.482 Y112.76 E.22053
G1 X113.482 Y113.407 E.02408
G1 X117.668 Y117.593 E.22053
G1 X117.668 Y118.239 E.02408
G1 X113.482 Y114.053 E.22053
G1 X113.482 Y114.7 E.02408
G1 X117.668 Y118.886 E.22053
G1 X117.668 Y119.532 E.02408
G1 X113.482 Y115.346 E.22053
G1 X113.482 Y115.993 E.02408
G1 X117.668 Y120.179 E.22053
G1 X117.668 Y120.825 E.02408
G1 X113.482 Y116.639 E.22053
G1 X113.482 Y117.286 E.02408
G1 X117.668 Y121.472 E.22053
G1 X117.668 Y122.118 E.02408
G1 X113.482 Y117.932 E.22053
G1 X113.482 Y118.579 E.02408
G1 X117.668 Y122.765 E.22053
G1 X117.668 Y123.411 E.02408
G1 X113.482 Y119.225 E.22053
G1 X113.482 Y119.872 E.02408
G1 X117.668 Y124.058 E.22053
G1 X117.668 Y124.704 E.02408
G1 X113.482 Y120.518 E.22053
G1 X113.482 Y121.165 E.02408
G1 X117.668 Y125.351 E.22053
