; HEADER_BLOCK_START
; generated by OrcaSlicer 2.2.0 on 2024-12-27 at 11:23:31
; total layer number: 18
; filament_density: 1.24
; filament_diameter: 1.75
; max_z_height: 3.60
; HEADER_BLOCK_END

; THUMBNAIL_BLOCK_START

;
; THUMBNAIL_BLOCK_END

; THUMBNAIL_BLOCK_START

;
; THUMBNAIL_BLOCK_END

; external perimeters extrusion width = 0.40mm
; perimeters extrusion width = 0.45mm
; infill extrusion width = 0.45mm
; solid infill extrusion width = 0.40mm
; top infill extrusion width = 0.40mm
; first layer extrusion width = 0.50mm

; external perimeters extrusion width = 0.40mm
; perimeters extrusion width = 0.45mm
; infill extrusion width = 0.45mm
; solid infill extrusion width = 0.40mm
; top infill extrusion width = 0.40mm
; first layer extrusion width = 0.50mm

; external perimeters extrusion width = 0.40mm
; perimeters extrusion width = 0.45mm
; infill extrusion width = 0.45mm
; solid infill extrusion width = 0.40mm
; top infill extrusion width = 0.40mm
; first layer extrusion width = 0.50mm

; external perimeters extrusion width = 0.40mm
; perimeters extrusion width = 0.45mm
; infill extrusion width = 0.45mm
; solid infill extrusion width = 0.40mm
; top infill extrusion width = 0.40mm
; first layer extrusion width = 0.50mm

; external perimeters extrusion width = 0.40mm
; perimeters extrusion width = 0.45mm
; infill extrusion width = 0.45mm
; solid infill extrusion width = 0.40mm
; top infill extrusion width = 0.40mm
; first layer extrusion width = 0.50mm

; external perimeters extrusion width = 0.40mm
; perimeters extrusion width = 0.45mm
; infill extrusion width = 0.45mm
; solid infill extrusion width = 0.40mm
; top infill extrusion width = 0.40mm
; first layer extrusion width = 0.50mm

; external perimeters extrusion width = 0.40mm
; perimeters extrusion width = 0.45mm
; infill extrusion width = 0.45mm
; solid infill extrusion width = 0.40mm
; top infill extrusion width = 0.40mm
; first layer extrusion width = 0.50mm

; external perimeters extrusion width = 0.40mm
; perimeters extrusion width = 0.45mm
; infill extrusion width = 0.45mm
; solid infill extrusion width = 0.40mm
; top infill extrusion width = 0.40mm
; first layer extrusion width = 0.50mm

; external perimeters extrusion width = 0.40mm
; perimeters extrusion width = 0.45mm
; infill extrusion width = 0.45mm
; solid infill extrusion width = 0.40mm
; top infill extrusion width = 0.40mm
; first layer extrusion width = 0.50mm

; external perimeters extrusion width = 0.40mm
; perimeters extrusion width = 0.45mm
; infill extrusion width = 0.45mm
; solid infill extrusion width = 0.40mm
; top infill extrusion width = 0.40mm
; first layer extrusion width = 0.50mm

; external perimeters extrusion width = 0.40mm
; perimeters extrusion width = 0.45mm
; infill extrusion width = 0.45mm
; solid infill extrusion width = 0.40mm
; top infill extrusion width = 0.40mm
; first layer extrusion width = 0.50mm

; external perimeters extrusion width = 0.40mm
; perimeters extrusion width = 0.45mm
; infill extrusion width = 0.45mm
; solid infill extrusion width = 0.40mm
; top infill extrusion width = 0.40mm
; first layer extrusion width = 0.50mm

; external perimeters extrusion width = 0.40mm
; perimeters extrusion width = 0.45mm
; infill extrusion width = 0.45mm
; solid infill extrusion width = 0.40mm
; top infill extrusion width = 0.40mm
; first layer extrusion width = 0.50mm

; external perimeters extrusion width = 0.40mm
; perimeters extrusion width = 0.45mm
; infill extrusion width = 0.45mm
; solid infill extrusion width = 0.40mm
; top infill extrusion width = 0.40mm
; first layer extrusion width = 0.50mm

; external perimeters extrusion width = 0.40mm
; perimeters extrusion width = 0.45mm
; infill extrusion width = 0.45mm
; solid infill extrusion width = 0.40mm
; top infill extrusion width = 0.40mm
; first layer extrusion width = 0.50mm

; EXECUTABLE_BLOCK_START
M73 P0 R186
M201 X500 Y500 Z500 E5000
M203 X500 Y500 Z10 E60
M204 P500 R1000 T500
M205 X8.00 Y8.00 Z0.40 E5.00 ; sets the jerk limits, mm/sec
;TYPE:Custom
G90 ; use absolute coordinates
M83 ; extruder relative mode
M140 S60 ; set final bed temp
M104 S150 ; set temporary nozzle temp to prevent oozing during homing
G4 S10 ; allow partial nozzle warmup
G28 ; home all axis
M420 S1 ;Enable mesh leveling
G1 Z50 F240
G1 X2 Y10 F3000
M104 S200 ; set final nozzle temp
M190 S60 ; wait for bed temp to stabilize
M109 S200 ; wait for nozzle temp to stabilize
G1 Z0.28 F240
G92 E0
G1 Y140 E10 F1500 ; prime the nozzle
M73 P0 R185
M73 P0 R185
G1 X2.3 F5000
G92 E0
G1 Y10 E10 F1200 ; prime the nozzle
G92 E0
G90
G21
M83 ; use relative distances for extrusion
; filament start gcode
M106 S0
;LAYER_CHANGE
;Z:0.2
;HEIGHT:0.2
;BEFORE_LAYER_CHANGE
;0.2
G92 E0

G1 E-.8 F1800
;_SET_FAN_SPEED_CHANGING_LAYER
M204 S250
G1 Z.6 F9000
G1 X90.146 Y90.109
G1 Z.6
G1 Z.2
G1 E.8 F1800
;TYPE:Skirt
;WIDTH:0.5
G1 F3000
G1 X178.148 Y2.076 E4.63626
G1 X178.711 Y1.614 E.02713
G1 X179.535 Y1.149 E.03524
G1 X180.187 Y.916 E.02578
G1 X181.102 Y.753 E.03461
G1 X197.44 Y.742 E.60852
G1 X198.764 Y.981 E.05013
G1 X199.451 Y1.268 E.02772
G1 X200.042 Y1.626 E.02576
G1 X200.601 Y2.089 E.02702
G1 X202.204 Y3.694 E.0845
G1 X202.958 Y4.768 E.04887
G1 X217.613 Y37.885 E1.34886
G1 X217.967 Y39.214 E.05123
G1 X217.998 Y39.888 E.02513
G1 X217.918 Y40.661 E.02892
G1 X217.616 Y41.668 E.03918
G1 X168.413 Y154.012 E4.5681
G1 X167.948 Y154.694 E.03075
G1 X141.679 Y180.963 E1.3837
G1 X140.88 Y181.476 E.03534
G1 X40.022 Y219.021 E4.00842
G1 X38.881 Y219.248 E.04334
G1 X37.683 Y219.189 E.04469
G1 X36.625 Y218.876 E.04108
G1 X35.609 Y218.289 E.04369
G1 X17.796 Y200.537 E.93667
G1 X3.066 Y183.248 E.84599
G1 X2.653 Y182.646 E.02722
G1 X2.292 Y181.876 E.03165
G1 X2.082 Y181.103 E.02985
G1 X2.002 Y180.33 E.02892
G1 X2.046 Y179.561 E.02869
G1 X2.226 Y178.761 E.03055
G1 X2.542 Y178 E.0307
G1 X2.98 Y177.306 E.03055
G1 X90.118 Y90.138 E4.59072
; printing object led_cover_right.stl id:0 copy 0
G1 E-.56 F1800
;WIPE_START
G1 F3000
G1 X90.825 Y89.43 E-.24
;WIPE_END
G1 Z.6 F9000
G1 X163.881 Y120.163 Z.6
G1 Z.2
G1 E.8 F1800
;TYPE:Inner wall
;WIDTH:0.499999
G1 F900
G1 X152.8 Y109.081 E.58371
G1 X160.487 Y101.394 E.40493
G1 X171.569 Y112.475 E.58371
G1 X163.909 Y120.134 E.40344
G1 X163.881 Y120.809 F9000
G1 F900
G1 X152.153 Y109.081 E.61776
G1 X160.487 Y100.747 E.43898
G1 X172.215 Y112.475 E.61776
G1 X163.909 Y120.781 E.43749
G1 X163.881 Y121.456 F9000
;TYPE:Outer wall
G1 F900
G1 X151.507 Y109.081 E.65181
G1 X160.487 Y100.101 E.47303
G1 X172.861 Y112.475 E.65181
G1 X163.909 Y121.427 E.47154
G1 E-.56 F1800
;WIPE_START
G1 F900
G1 X163.201 Y120.722 E-.24
;WIPE_END
G1 Z.6 F9000
G1 X171.227 Y112.623 Z.6
G1 Z.2
G1 E.8 F1800
;TYPE:Bottom surface
;WIDTH:0.505665
G1 F1200
G1 X160.485 Y101.881 E.57285
G1 X160.158 Y102.208 E.01745
G1 X170.755 Y112.805 E.56509
G1 X170.427 Y113.132 E.01745
G1 X159.831 Y102.535 E.56509
G1 X159.503 Y102.862 E.01745
G1 X170.1 Y113.459 E.56509
G1 X169.773 Y113.786 E.01745
G1 X159.176 Y103.189 E.56509
G1 X158.849 Y103.517 E.01745
G1 X169.446 Y114.113 E.56509
G1 X169.118 Y114.441 E.01745
G1 X158.522 Y103.844 E.56509
G1 X158.195 Y104.171 E.01745
G1 X168.791 Y114.768 E.56509
G1 X168.464 Y115.095 E.01745
G1 X157.867 Y104.498 E.56509
G1 X157.54 Y104.825 E.01745
G1 X168.137 Y115.422 E.56509
G1 X167.81 Y115.749 E.01745
G1 X157.213 Y105.153 E.56509
G1 X156.886 Y105.48 E.01745
G1 X167.482 Y116.077 E.56509
G1 X167.155 Y116.404 E.01745
G1 X156.558 Y105.807 E.56509
G1 X156.231 Y106.134 E.01745
G1 X166.828 Y116.731 E.56509
G1 X166.501 Y117.058 E.01745
G1 X155.904 Y106.461 E.56509
G1 X155.577 Y106.789 E.01745
G1 X166.174 Y117.385 E.56509
G1 X165.846 Y117.713 E.01745
G1 X155.25 Y107.116 E.56509
G1 X154.922 Y107.443 E.01745
G1 X165.519 Y118.04 E.56509
G1 X165.192 Y118.367 E.01745
G1 X154.595 Y107.77 E.56509
G1 X154.268 Y108.098 E.01745
G1 X164.865 Y118.694 E.56509
G1 X164.538 Y119.022 E.01745
G1 X153.941 Y108.425 E.56509
G1 X153.614 Y108.752 E.01745
M73 P0 R184
M73 P0 R184
G1 X164.21 Y119.349 E.56509
G1 X163.883 Y119.676 E.01745
G1 X153.141 Y108.934 E.57285
; stop printing object led_cover_right.stl id:0 copy 0
; printing object led_cover_left.stl id:1734291243776 copy 0
G1 E-.56 F1800
;WIPE_START
G1 F1200
G1 X153.848 Y109.641 E-.24
;WIPE_END
G1 Z.6 F9000
G1 X158.003 Y119.253 Z.6
G1 Z.2
G1 E.8 F1800
;TYPE:Inner wall
;WIDTH:0.499999
G1 F900
G1 X146.921 Y130.334 E.58371
G1 X139.234 Y122.647 E.40493
G1 X150.316 Y111.565 E.58371
G1 X157.975 Y119.224 E.40344
G1 X158.649 Y119.253 F9000
G1 F900
G1 X146.921 Y130.981 E.61776
G1 X138.588 Y122.647 E.43898
G1 X150.316 Y110.919 E.61776
G1 X158.621 Y119.224 E.43749
G1 X159.296 Y119.253 F9000
;TYPE:Outer wall
G1 F900
G1 X146.921 Y131.627 E.65181
G1 X137.941 Y122.647 E.47303
G1 X150.316 Y110.272 E.65181
G1 X159.267 Y119.224 E.47154
G1 X157.66 Y119.402 F9000
;TYPE:Bottom surface
;WIDTH:0.510894
G1 F1200
G1 X150.312 Y112.054 E.39628
G1 X149.981 Y112.385 E.01785
G1 X157.183 Y119.587 E.38843
G1 X156.852 Y119.918 E.01785
G1 X149.65 Y112.716 E.38843
G1 X149.319 Y113.047 E.01785
G1 X156.522 Y120.249 E.38843
G1 X156.191 Y120.58 E.01785
G1 X148.988 Y113.378 E.38843
G1 X148.657 Y113.708 E.01785
G1 X155.86 Y120.911 E.38843
G1 X155.529 Y121.242 E.01785
G1 X148.326 Y114.039 E.38843
G1 X147.995 Y114.37 E.01785
G1 X155.198 Y121.573 E.38843
G1 X154.867 Y121.904 E.01785
G1 X147.664 Y114.701 E.38843
G1 X147.333 Y115.032 E.01785
G1 X154.536 Y122.235 E.38843
G1 X154.205 Y122.566 E.01785
G1 X147.003 Y115.363 E.38843
G1 X146.672 Y115.694 E.01785
G1 X153.874 Y122.897 E.38843
G1 X153.543 Y123.227 E.01785
G1 X146.341 Y116.025 E.38843
G1 X146.01 Y116.356 E.01785
G1 X153.212 Y123.558 E.38843
G1 X152.882 Y123.889 E.01785
G1 X145.679 Y116.687 E.38843
G1 X145.348 Y117.018 E.01785
G1 X152.551 Y124.22 E.38843
G1 X152.22 Y124.551 E.01785
G1 X145.017 Y117.348 E.38844
G1 X144.686 Y117.679 E.01785
G1 X151.889 Y124.882 E.38843
G1 X151.558 Y125.213 E.01785
G1 X144.355 Y118.01 E.38843
G1 X144.024 Y118.341 E.01785
G1 X151.227 Y125.544 E.38843
G1 X150.896 Y125.875 E.01785
G1 X143.693 Y118.672 E.38843
G1 X143.363 Y119.003 E.01785
G1 X150.565 Y126.206 E.38843
G1 X150.234 Y126.537 E.01785
G1 X143.032 Y119.334 E.38843
G1 X142.701 Y119.665 E.01785
G1 X149.903 Y126.867 E.38843
G1 X149.572 Y127.198 E.01785
G1 X142.37 Y119.996 E.38843
G1 X142.039 Y120.327 E.01785
M73 P1 R184
M73 P1 R184
G1 X149.242 Y127.529 E.38843
G1 X148.911 Y127.86 E.01785
G1 X141.708 Y120.658 E.38843
G1 X141.377 Y120.988 E.01785
G1 X148.58 Y128.191 E.38843
G1 X148.249 Y128.522 E.01785
G1 X141.046 Y121.319 E.38844
G1 X140.715 Y121.65 E.01785
G1 X147.918 Y128.853 E.38843
G1 X147.587 Y129.184 E.01785
G1 X140.384 Y121.981 E.38843
G1 X140.053 Y122.312 E.01785
G1 X147.256 Y129.515 E.38843
G1 X146.925 Y129.846 E.01785
G1 X139.577 Y122.498 E.39628
; stop printing object led_cover_left.stl id:1734291243776 copy 0
; printing object led_cover_right.stl id:1734984389888 copy 0
G1 E-.56 F1800
;WIPE_START
G1 F1200
G1 X140.284 Y123.205 E-.24
;WIPE_END
G1 Z.6 F9000
G1 X168.174 Y129.375 Z.6
G1 Z.2
G1 E.8 F1800
;TYPE:Inner wall
;WIDTH:0.499999
G1 F900
G1 X157.093 Y140.457 E.58371
G1 X149.405 Y132.769 E.40493
G1 X160.487 Y121.688 E.58371
G1 X168.146 Y129.347 E.40344
G1 X168.821 Y129.375 F9000
G1 F900
G1 X157.093 Y141.103 E.61776
G1 X148.759 Y132.769 E.43898
G1 X160.487 Y121.041 E.61776
G1 X168.793 Y129.347 E.43749
G1 X169.467 Y129.375 F9000
;TYPE:Outer wall
G1 F900
G1 X157.093 Y141.749 E.65181
G1 X148.113 Y132.769 E.47303
G1 X160.487 Y120.395 E.65181
G1 X169.439 Y129.347 E.47154
G1 X167.831 Y129.524 F9000
;TYPE:Bottom surface
;WIDTH:0.510894
G1 F1200
G1 X160.483 Y122.176 E.39628
G1 X160.152 Y122.507 E.01785
G1 X167.355 Y129.71 E.38843
G1 X167.024 Y130.041 E.01785
G1 X159.821 Y122.838 E.38843
G1 X159.49 Y123.169 E.01785
G1 X166.693 Y130.372 E.38843
G1 X166.362 Y130.703 E.01785
G1 X159.16 Y123.5 E.38843
G1 X158.829 Y123.831 E.01785
G1 X166.031 Y131.034 E.38843
G1 X165.7 Y131.364 E.01785
G1 X158.498 Y124.162 E.38843
G1 X158.167 Y124.493 E.01785
G1 X165.369 Y131.695 E.38843
G1 X165.039 Y132.026 E.01785
G1 X157.836 Y124.824 E.38843
G1 X157.505 Y125.155 E.01785
G1 X164.708 Y132.357 E.38843
G1 X164.377 Y132.688 E.01785
G1 X157.174 Y125.485 E.38843
G1 X156.843 Y125.816 E.01785
G1 X164.046 Y133.019 E.38843
G1 X163.715 Y133.35 E.01785
G1 X156.512 Y126.147 E.38843
G1 X156.181 Y126.478 E.01785
G1 X163.384 Y133.681 E.38843
G1 X163.053 Y134.012 E.01785
G1 X155.85 Y126.809 E.38843
G1 X155.52 Y127.14 E.01785
G1 X162.722 Y134.343 E.38843
G1 X162.391 Y134.674 E.01785
G1 X155.189 Y127.471 E.38844
G1 X154.858 Y127.802 E.01785
G1 X162.06 Y135.004 E.38843
G1 X161.729 Y135.335 E.01785
G1 X154.527 Y128.133 E.38843
G1 X154.196 Y128.464 E.01785
G1 X161.399 Y135.666 E.38843
G1 X161.068 Y135.997 E.01785
G1 X153.865 Y128.795 E.38843
G1 X153.534 Y129.125 E.01785
G1 X160.737 Y136.328 E.38843
G1 X160.406 Y136.659 E.01785
G1 X153.203 Y129.456 E.38843
G1 X152.872 Y129.787 E.01785
G1 X160.075 Y136.99 E.38843
G1 X159.744 Y137.321 E.01785
G1 X152.541 Y130.118 E.38843
G1 X152.21 Y130.449 E.01785
M73 P1 R183
M73 P1 R183
G1 X159.413 Y137.652 E.38843
G1 X159.082 Y137.983 E.01785
G1 X151.88 Y130.78 E.38843
G1 X151.549 Y131.111 E.01785
G1 X158.751 Y138.314 E.38843
G1 X158.42 Y138.644 E.01785
G1 X151.218 Y131.442 E.38844
G1 X150.887 Y131.773 E.01785
G1 X158.089 Y138.975 E.38843
G1 X157.759 Y139.306 E.01785
G1 X150.556 Y132.104 E.38843
G1 X150.225 Y132.435 E.01785
G1 X157.428 Y139.637 E.38843
G1 X157.097 Y139.968 E.01785
G1 X149.749 Y132.62 E.39628
; stop printing object led_cover_right.stl id:1734984389888 copy 0
; printing object led_cover_left.stl id:0 copy 0
G1 E-.56 F1800
;WIPE_START
G1 F1200
G1 X150.456 Y133.327 E-.24
;WIPE_END
G1 Z.6 F9000
G1 X113.086 Y170.958 Z.6
G1 Z.2
G1 E.8 F1800
;TYPE:Inner wall
;WIDTH:0.499999
G1 F900
G1 X102.005 Y159.876 E.58371
G1 X109.692 Y152.189 E.40493
G1 X120.774 Y163.27 E.58371
G1 X113.115 Y170.929 E.40344
G1 X113.086 Y171.604 F9000
G1 F900
G1 X101.358 Y159.876 E.61776
G1 X109.692 Y151.542 E.43898
G1 X121.42 Y163.27 E.61776
G1 X113.115 Y171.576 E.43749
G1 X113.086 Y172.25 F9000
;TYPE:Outer wall
G1 F900
G1 X100.712 Y159.876 E.65181
G1 X109.692 Y150.896 E.47303
G1 X122.067 Y163.27 E.65181
G1 X113.115 Y172.222 E.47154
G1 E-.56 F1800
;WIPE_START
G1 F900
G1 X112.406 Y171.517 E-.24
;WIPE_END
G1 Z.6 F9000
G1 X120.432 Y163.418 Z.6
G1 Z.2
G1 E.8 F1800
;TYPE:Bottom surface
;WIDTH:0.505665
G1 F1200
G1 X109.69 Y152.675 E.57285
G1 X109.363 Y153.003 E.01745
G1 X119.96 Y163.599 E.56509
G1 X119.633 Y163.927 E.01745
G1 X109.036 Y153.33 E.56509
G1 X108.709 Y153.657 E.01745
G1 X119.305 Y164.254 E.56509
G1 X118.978 Y164.581 E.01745
G1 X108.381 Y153.984 E.56509
G1 X108.054 Y154.311 E.01745
G1 X118.651 Y164.908 E.56509
G1 X118.324 Y165.235 E.01745
G1 X107.727 Y154.639 E.56509
G1 X107.4 Y154.966 E.01745
G1 X117.996 Y165.563 E.56509
G1 X117.669 Y165.89 E.01745
G1 X107.073 Y155.293 E.56509
G1 X106.745 Y155.62 E.01745
G1 X117.342 Y166.217 E.56509
G1 X117.015 Y166.544 E.01745
G1 X106.418 Y155.947 E.56509
G1 X106.091 Y156.275 E.01745
G1 X116.688 Y166.871 E.56509
G1 X116.36 Y167.199 E.01745
G1 X105.764 Y156.602 E.56509
G1 X105.436 Y156.929 E.01745
G1 X116.033 Y167.526 E.56509
G1 X115.706 Y167.853 E.01745
G1 X105.109 Y157.256 E.56509
G1 X104.782 Y157.584 E.01745
G1 X115.379 Y168.18 E.56509
G1 X115.052 Y168.507 E.01745
G1 X104.455 Y157.911 E.56509
G1 X104.128 Y158.238 E.01745
G1 X114.724 Y168.835 E.56509
G1 X114.397 Y169.162 E.01745
G1 X103.8 Y158.565 E.56509
G1 X103.473 Y158.892 E.01745
G1 X114.07 Y169.489 E.56509
G1 X113.743 Y169.816 E.01745
G1 X103.146 Y159.22 E.56509
G1 X102.819 Y159.547 E.01745
G1 X113.416 Y170.144 E.56509
G1 X113.088 Y170.471 E.01745
G1 X102.346 Y159.729 E.57285
; stop printing object led_cover_left.stl id:0 copy 0
; printing object led_cover_right.stl id:6878248353854944512 copy 0
G1 E-.56 F1800
;WIPE_START
G1 F1200
G1 X103.053 Y160.436 E-.24
;WIPE_END
G1 Z.6 F9000
G1 X130.921 Y146.335 Z.6
G1 Z.2
G1 E.8 F1800
;TYPE:Inner wall
;WIDTH:0.499999
G1 F900
G1 X119.839 Y157.416 E.58371
G1 X112.152 Y149.729 E.40493
G1 X123.233 Y138.647 E.58371
