; HEADER_BLOCK_START
; generated by OrcaSlicer 2.2.0 on 2024-12-31 at 21:35:22
; total layer number: 15
; filament_density: 1.24
; filament_diameter: 1.75
; max_z_height: 3.00
; HEADER_BLOCK_END

; THUMBNAIL_BLOCK_START

;
; THUMBNAIL_BLOCK_END

; THUMBNAIL_BLOCK_START

;
; THUMBNAIL_BLOCK_END

; external perimeters extrusion width = 0.40mm
; perimeters extrusion width = 0.45mm
; infill extrusion width = 0.45mm
; solid infill extrusion width = 0.40mm
; top infill extrusion width = 0.40mm
; first layer extrusion width = 0.50mm

; external perimeters extrusion width = 0.40mm
; perimeters extrusion width = 0.45mm
; infill extrusion width = 0.45mm
; solid infill extrusion width = 0.40mm
; top infill extrusion width = 0.40mm
; first layer extrusion width = 0.50mm

; external perimeters extrusion width = 0.40mm
; perimeters extrusion width = 0.45mm
; infill extrusion width = 0.45mm
; solid infill extrusion width = 0.40mm
; top infill extrusion width = 0.40mm
; first layer extrusion width = 0.50mm

; external perimeters extrusion width = 0.40mm
; perimeters extrusion width = 0.45mm
; infill extrusion width = 0.45mm
; solid infill extrusion width = 0.40mm
; top infill extrusion width = 0.40mm
; first layer extrusion width = 0.50mm

; external perimeters extrusion width = 0.40mm
; perimeters extrusion width = 0.45mm
; infill extrusion width = 0.45mm
; solid infill extrusion width = 0.40mm
; top infill extrusion width = 0.40mm
; first layer extrusion width = 0.50mm

; external perimeters extrusion width = 0.40mm
; perimeters extrusion width = 0.45mm
; infill extrusion width = 0.45mm
; solid infill extrusion width = 0.40mm
; top infill extrusion width = 0.40mm
; first layer extrusion width = 0.50mm

; external perimeters extrusion width = 0.40mm
; perimeters extrusion width = 0.45mm
; infill extrusion width = 0.45mm
; solid infill extrusion width = 0.40mm
; top infill extrusion width = 0.40mm
; first layer extrusion width = 0.50mm

; external perimeters extrusion width = 0.40mm
; perimeters extrusion width = 0.45mm
; infill extrusion width = 0.45mm
; solid infill extrusion width = 0.40mm
; top infill extrusion width = 0.40mm
; first layer extrusion width = 0.50mm

; EXECUTABLE_BLOCK_START
M73 P0 R151
M201 X500 Y500 Z500 E5000
M203 X500 Y500 Z10 E60
M204 P500 R1000 T500
M205 X8.00 Y8.00 Z0.40 E5.00 ; sets the jerk limits, mm/sec
;TYPE:Custom
G90 ; use absolute coordinates
M83 ; extruder relative mode
M140 S60 ; set final bed temp
M104 S150 ; set temporary nozzle temp to prevent oozing during homing
G4 S10 ; allow partial nozzle warmup
G28 ; home all axis
M420 S1 ;Enable mesh leveling
G1 Z50 F240
G1 X2 Y10 F3000
M104 S200 ; set final nozzle temp
M190 S60 ; wait for bed temp to stabilize
M109 S200 ; wait for nozzle temp to stabilize
G1 Z0.28 F240
G92 E0
G1 Y140 E10 F1500 ; prime the nozzle
M73 P0 R150
M73 P0 R150
G1 X2.3 F5000
G92 E0
G1 Y10 E10 F1200 ; prime the nozzle
G92 E0
G90
G21
M83 ; use relative distances for extrusion
; filament start gcode
M106 S0
;LAYER_CHANGE
;Z:0.2
;HEIGHT:0.2
;BEFORE_LAYER_CHANGE
;0.2
G92 E0

G1 E-.8 F1800
;_SET_FAN_SPEED_CHANGING_LAYER
M204 S250
G1 Z.6 F9000
G1 X65.146 Y46.788
G1 Z.6
G1 Z.2
G1 E.8 F1800
;TYPE:Skirt
;WIDTH:0.5
G1 F3000
G1 X65.146 Y37.5 E.34594
G1 X65.27 Y36.421 E.04045
G1 X65.628 Y35.404 E.04015
G1 X66.165 Y34.539 E.03793
G1 X67.196 Y33.559 E.05299
G1 X67.739 Y33.227 E.02368
G1 X68.688 Y32.854 E.03799
G1 X69.975 Y32.671 E.04842
G1 X150.275 Y32.685 E2.99085
G1 X151.379 Y32.871 E.04171
G1 X152.038 Y33.118 E.02621
G1 X152.823 Y33.576 E.03384
G1 X153.565 Y34.226 E.03674
G1 X154.011 Y34.791 E.02682
G1 X154.471 Y35.64 E.03597
G1 X154.769 Y36.647 E.03911
G1 X154.854 Y37.5 E.03192
G1 X154.854 Y182.5 E5.4007
G1 X154.73 Y183.579 E.04045
G1 X154.372 Y184.596 E.04015
G1 X153.835 Y185.461 E.03793
G1 X152.804 Y186.441 E.053
G1 X152.261 Y186.773 E.02368
G1 X151.312 Y187.146 E.03798
G1 X150.025 Y187.329 E.04842
G1 X69.975 Y187.329 E2.98156
G1 X68.621 Y187.129 E.05098
G1 X67.601 Y186.698 E.04124
G1 X66.944 Y186.25 E.02962
G1 X66.435 Y185.774 E.02596
G1 X65.768 Y184.857 E.04222
G1 X65.341 Y183.831 E.04139
G1 X65.146 Y182.5 E.05011
G1 X65.146 Y46.828 E5.05327
; printing object led_strip_3x_8mm.stl id:6 copy 0
G1 E-.56 F1800
;WIPE_START
G1 F3000
G1 X65.146 Y45.828 E-.24
;WIPE_END
G1 Z.6 F9000
G1 X151.174 Y36.662 Z.6
G1 Z.2
G1 E.8 F1800
;TYPE:Inner wall
;WIDTH:0.499999
G1 F900
G1 X151.414 Y37.167 E.02085
G1 X151.461 Y37.66 E.01843
G1 X151.461 Y182.322 E5.3881
G1 X151.405 Y182.858 E.02007
G1 X151.214 Y183.275 E.01708
G1 X150.9 Y183.629 E.01764
G1 X150.483 Y183.844 E.01746
G1 X149.961 Y183.936 E.01975
G1 X148.192 Y183.936 E.06589
G1 X147.685 Y183.886 E.01896
G1 X147.376 Y183.77 E.01229
G1 X147.095 Y183.579 E.01268
G1 X146.811 Y183.243 E.01636
G1 X146.635 Y182.824 E.01694
G1 X146.589 Y182.432 E.01469
G1 X146.589 Y37.678 E5.39155
G1 X146.645 Y37.142 E.02007
G1 X146.836 Y36.725 E.01708
G1 X147.15 Y36.371 E.01764
G1 X147.567 Y36.156 E.01746
G1 X148.089 Y36.064 E.01975
G1 X149.858 Y36.064 E.0659
G1 X150.365 Y36.114 E.01895
G1 X150.674 Y36.23 E.0123
G1 X150.955 Y36.421 E.01267
G1 X151.147 Y36.632 E.01062
G1 X151.533 Y36.417 F9000
G1 F900
G1 X151.66 Y36.594 E.00813
G1 X151.862 Y37.064 E.01906
G1 X151.918 Y37.66 E.02228
G1 X151.918 Y182.455 E5.39305
G1 X151.852 Y182.968 E.01929
M73 P0 R149
M73 P0 R149
G1 X151.707 Y183.355 E.01538
G1 X151.48 Y183.703 E.01546
G1 X151.182 Y183.992 E.0155
G1 X150.828 Y184.209 E.01546
G1 X150.436 Y184.343 E.01543
G1 X149.986 Y184.393 E.01686
G1 X148.192 Y184.393 E.06683
G1 X147.576 Y184.333 E.02305
G1 X147.164 Y184.179 E.01637
G1 X146.793 Y183.926 E.01673
G1 X146.424 Y183.487 E.02137
G1 X146.187 Y182.931 E.02251
G1 X146.132 Y182.459 E.01769
G1 X146.132 Y37.545 E5.39748
G1 X146.198 Y37.032 E.01929
G1 X146.343 Y36.645 E.01538
G1 X146.57 Y36.297 E.01546
G1 X146.868 Y36.008 E.0155
G1 X147.222 Y35.791 E.01546
G1 X147.614 Y35.657 E.01543
G1 X148.064 Y35.607 E.01686
G1 X149.858 Y35.607 E.06683
G1 X150.474 Y35.667 E.02303
G1 X150.886 Y35.821 E.01639
G1 X151.257 Y36.074 E.01672
G1 X151.404 Y36.236 E.00817
G1 X151.51 Y36.384 E.00675
G1 X151.92 Y36.124 F9000
;TYPE:Outer wall
G1 F900
G1 X152.094 Y36.434 E.01323
G1 X152.311 Y36.961 E.02124
G1 X152.375 Y37.66 E.02614
M73 P1 R149
M73 P1 R149
G1 X152.375 Y182.484 E5.39414
G1 X152.298 Y183.079 E.02235
G1 X152.118 Y183.563 E.01923
G1 X151.835 Y183.995 E.01924
G1 X151.464 Y184.356 E.01928
G1 X151.024 Y184.625 E.01923
G1 X150.536 Y184.792 E.01919
G1 X150.011 Y184.85 E.01967
G1 X148.04 Y184.85 E.07342
G1 X147.467 Y184.781 E.02151
G1 X146.952 Y184.588 E.02046
G1 X146.491 Y184.273 E.02079
G1 X146.239 Y183.996 E.01395
G1 X145.931 Y183.561 E.01987
G1 X145.739 Y183.037 E.02077
G1 X145.675 Y182.485 E.02068
G1 X145.675 Y37.516 E5.39955
G1 X145.752 Y36.921 E.02235
G1 X145.932 Y36.437 E.01923
G1 X146.215 Y36.005 E.01924
G1 X146.586 Y35.644 E.01928
G1 X147.026 Y35.375 E.01923
G1 X147.514 Y35.208 E.01919
G1 X148.039 Y35.15 E.01967
G1 X150.01 Y35.15 E.07342
G1 X150.583 Y35.219 E.0215
G1 X151.098 Y35.412 E.02048
G1 X151.559 Y35.727 E.02078
G1 X151.893 Y36.094 E.0185
G1 E-.56 F1800
;WIPE_START
G1 F900
G1 X152.094 Y36.434 E-.09466
G1 X152.311 Y36.961 E-.13686
G1 X152.314 Y36.996 E-.00848
;WIPE_END
G1 Z.6 F9000
G1 X149.61 Y36.209 Z.6
G1 Z.2
G1 E.8 F1800
;TYPE:Bottom surface
;WIDTH:0.500239
G1 F1200
G1 X151.118 Y37.717 E.07947
G1 X151.118 Y38.364 E.0241
G1 X149.167 Y36.412 E.10284
G1 X148.517 Y36.409 E.02423
G1 X151.118 Y39.011 E.1371
G1 X151.118 Y39.657 E.0241
G1 X147.892 Y36.431 E.17004
G1 X147.789 Y36.442 E.00383
G1 X147.565 Y36.519 E.00885
G1 X147.421 Y36.607 E.00628
G1 X151.118 Y40.304 E.19484
G1 X151.118 Y40.951 E.0241
G1 X147.106 Y36.939 E.21144
G1 X147.061 Y37.008 E.00308
G1 X146.98 Y37.225 E.00864
G1 X146.953 Y37.433 E.0078
G1 X151.118 Y41.598 E.2195
G1 X151.118 Y42.244 E.0241
G1 X146.932 Y38.058 E.22061
G1 X146.932 Y38.705 E.0241
G1 X151.118 Y42.891 E.22061
G1 X151.118 Y43.538 E.0241
G1 X146.932 Y39.352 E.22061
G1 X146.932 Y39.998 E.0241
G1 X151.118 Y44.185 E.22061
G1 X151.118 Y44.831 E.0241
G1 X146.932 Y40.645 E.22061
G1 X146.932 Y41.292 E.0241
G1 X151.118 Y45.478 E.22061
G1 X151.118 Y46.125 E.0241
G1 X146.932 Y41.939 E.22061
G1 X146.932 Y42.585 E.0241
G1 X151.118 Y46.772 E.22061
G1 X151.118 Y47.418 E.0241
G1 X146.932 Y43.232 E.22061
G1 X146.932 Y43.879 E.0241
G1 X151.118 Y48.065 E.22061
G1 X151.118 Y48.712 E.0241
G1 X146.932 Y44.526 E.22061
G1 X146.932 Y45.172 E.0241
G1 X151.118 Y49.359 E.22061
G1 X151.118 Y50.005 E.0241
G1 X146.932 Y45.819 E.22061
G1 X146.932 Y46.466 E.0241
G1 X151.118 Y50.652 E.22061
G1 X151.118 Y51.299 E.0241
G1 X146.932 Y47.113 E.22061
G1 X146.932 Y47.759 E.0241
G1 X151.118 Y51.946 E.22061
G1 X151.118 Y52.592 E.0241
G1 X146.932 Y48.406 E.22061
G1 X146.932 Y49.053 E.0241
G1 X151.118 Y53.239 E.22061
G1 X151.118 Y53.886 E.0241
G1 X146.932 Y49.7 E.22061
G1 X146.932 Y50.346 E.0241
G1 X151.118 Y54.532 E.22061
G1 X151.118 Y55.179 E.0241
G1 X146.932 Y50.993 E.22061
G1 X146.932 Y51.64 E.0241
G1 X151.118 Y55.826 E.22061
G1 X151.118 Y56.473 E.0241
G1 X146.932 Y52.287 E.22061
G1 X146.932 Y52.933 E.0241
G1 X151.118 Y57.119 E.22061
G1 X151.118 Y57.766 E.0241
G1 X146.932 Y53.58 E.22061
G1 X146.932 Y54.227 E.0241
G1 X151.118 Y58.413 E.22061
G1 X151.118 Y59.06 E.0241
G1 X146.932 Y54.874 E.22061
G1 X146.932 Y55.52 E.0241
G1 X151.118 Y59.706 E.22061
G1 X151.118 Y60.353 E.0241
G1 X146.932 Y56.167 E.22061
G1 X146.932 Y56.814 E.0241
G1 X151.118 Y61 E.22061
G1 X151.118 Y61.647 E.0241
G1 X146.932 Y57.461 E.22061
G1 X146.932 Y58.107 E.0241
G1 X151.118 Y62.293 E.22061
G1 X151.118 Y62.94 E.0241
G1 X146.932 Y58.754 E.22061
G1 X146.932 Y59.401 E.0241
G1 X151.118 Y63.587 E.22061
G1 X151.118 Y64.234 E.0241
G1 X146.932 Y60.048 E.22061
G1 X146.932 Y60.694 E.0241
G1 X151.118 Y64.88 E.22061
G1 X151.118 Y65.527 E.0241
G1 X146.932 Y61.341 E.22061
G1 X146.932 Y61.988 E.0241
G1 X151.118 Y66.174 E.22061
G1 X151.118 Y66.821 E.0241
G1 X146.932 Y62.635 E.22061
G1 X146.932 Y63.281 E.0241
G1 X151.118 Y67.467 E.22061
G1 X151.118 Y68.114 E.0241
G1 X146.932 Y63.928 E.22061
G1 X146.932 Y64.575 E.0241
G1 X151.118 Y68.761 E.22061
G1 X151.118 Y69.408 E.0241
G1 X146.932 Y65.222 E.22061
G1 X146.932 Y65.868 E.0241
G1 X151.118 Y70.054 E.22061
G1 X151.118 Y70.701 E.0241
G1 X146.932 Y66.515 E.22061
G1 X146.932 Y67.162 E.0241
G1 X151.118 Y71.348 E.22061
G1 X151.118 Y71.995 E.0241
G1 X146.932 Y67.809 E.22061
G1 X146.932 Y68.455 E.0241
G1 X151.118 Y72.641 E.22061
G1 X151.118 Y73.288 E.0241
G1 X146.932 Y69.102 E.22061
G1 X146.932 Y69.749 E.0241
G1 X151.118 Y73.935 E.22061
G1 X151.118 Y74.582 E.0241
G1 X146.932 Y70.396 E.22061
G1 X146.932 Y71.042 E.0241
G1 X151.118 Y75.228 E.22061
G1 X151.118 Y75.875 E.0241
G1 X146.932 Y71.689 E.22061
G1 X146.932 Y72.336 E.0241
G1 X151.118 Y76.522 E.22061
G1 X151.118 Y77.169 E.0241
G1 X146.932 Y72.983 E.22061
G1 X146.932 Y73.629 E.0241
G1 X151.118 Y77.815 E.22061
G1 X151.118 Y78.462 E.0241
G1 X146.932 Y74.276 E.22061
G1 X146.932 Y74.923 E.0241
G1 X151.118 Y79.109 E.22061
G1 X151.118 Y79.756 E.0241
G1 X146.932 Y75.57 E.22061
G1 X146.932 Y76.216 E.0241
G1 X151.118 Y80.402 E.22061
G1 X151.118 Y81.049 E.0241
G1 X146.932 Y76.863 E.22061
G1 X146.932 Y77.51 E.0241
G1 X151.118 Y81.696 E.22061
G1 X151.118 Y82.343 E.0241
G1 X146.932 Y78.157 E.22061
M73 P1 R148
M73 P1 R148
G1 X146.932 Y78.803 E.0241
G1 X151.118 Y82.989 E.22061
G1 X151.118 Y83.636 E.0241
G1 X146.932 Y79.45 E.22061
G1 X146.932 Y80.097 E.0241
G1 X151.118 Y84.283 E.22061
G1 X151.118 Y84.93 E.0241
G1 X146.932 Y80.744 E.22061
G1 X146.932 Y81.39 E.0241
G1 X151.118 Y85.576 E.22061
G1 X151.118 Y86.223 E.0241
G1 X146.932 Y82.037 E.22061
G1 X146.932 Y82.684 E.0241
G1 X151.118 Y86.87 E.22061
G1 X151.118 Y87.517 E.0241
G1 X146.932 Y83.331 E.22061
G1 X146.932 Y83.977 E.0241
G1 X151.118 Y88.163 E.22061
G1 X151.118 Y88.81 E.0241
G1 X146.932 Y84.624 E.22061
G1 X146.932 Y85.271 E.0241
G1 X151.118 Y89.457 E.22061
G1 X151.118 Y90.104 E.0241
G1 X146.932 Y85.918 E.22061
G1 X146.932 Y86.564 E.0241
G1 X151.118 Y90.75 E.22061
G1 X151.118 Y91.397 E.0241
G1 X146.932 Y87.211 E.22061
G1 X146.932 Y87.858 E.0241
G1 X151.118 Y92.044 E.22061
G1 X151.118 Y92.691 E.0241
G1 X146.932 Y88.504 E.22061
G1 X146.932 Y89.151 E.0241
G1 X151.118 Y93.337 E.22061
G1 X151.118 Y93.984 E.0241
G1 X146.932 Y89.798 E.22061
G1 X146.932 Y90.445 E.0241
G1 X151.118 Y94.631 E.22061
G1 X151.118 Y95.278 E.0241
G1 X146.932 Y91.091 E.22061
G1 X146.932 Y91.738 E.0241
G1 X151.118 Y95.924 E.22061
G1 X151.118 Y96.571 E.0241
G1 X146.932 Y92.385 E.22061
G1 X146.932 Y93.032 E.0241
G1 X151.118 Y97.218 E.22061
G1 X151.118 Y97.865 E.0241
G1 X146.932 Y93.678 E.22061
G1 X146.932 Y94.325 E.0241
G1 X151.118 Y98.511 E.22061
G1 X151.118 Y99.158 E.0241
G1 X146.932 Y94.972 E.22061
G1 X146.932 Y95.619 E.0241
G1 X151.118 Y99.805 E.22061
G1 X151.118 Y100.452 E.0241
G1 X146.932 Y96.265 E.22061
G1 X146.932 Y96.912 E.0241
G1 X151.118 Y101.098 E.22061
G1 X151.118 Y101.745 E.0241
G1 X146.932 Y97.559 E.22061
G1 X146.932 Y98.206 E.0241
G1 X151.118 Y102.392 E.22061
G1 X151.118 Y103.039 E.0241
G1 X146.932 Y98.852 E.22061
G1 X146.932 Y99.499 E.0241
G1 X151.118 Y103.685 E.22061
G1 X151.118 Y104.332 E.0241
G1 X146.932 Y100.146 E.22061
G1 X146.932 Y100.793 E.0241
G1 X151.118 Y104.979 E.22061
G1 X151.118 Y105.625 E.0241
G1 X146.932 Y101.439 E.22061
G1 X146.932 Y102.086 E.0241
G1 X151.118 Y106.272 E.22061
G1 X151.118 Y106.919 E.0241
G1 X146.932 Y102.733 E.22061
G1 X146.932 Y103.38 E.0241
G1 X151.118 Y107.566 E.22061
G1 X151.118 Y108.212 E.0241
G1 X146.932 Y104.026 E.22061
G1 X146.932 Y104.673 E.0241
G1 X151.118 Y108.859 E.22061
G1 X151.118 Y109.506 E.0241
G1 X146.932 Y105.32 E.22061
G1 X146.932 Y105.967 E.0241
G1 X151.118 Y110.153 E.22061
G1 X151.118 Y110.799 E.0241
G1 X146.932 Y106.613 E.22061
G1 X146.932 Y107.26 E.0241
G1 X151.118 Y111.446 E.22061
G1 X151.118 Y112.093 E.0241
G1 X146.932 Y107.907 E.22061
G1 X146.932 Y108.554 E.0241
G1 X151.118 Y112.74 E.22061
G1 X151.118 Y113.386 E.0241
G1 X146.932 Y109.2 E.22061
G1 X146.932 Y109.847 E.0241
G1 X151.118 Y114.033 E.22061
G1 X151.118 Y114.68 E.0241
G1 X146.932 Y110.494 E.22061
G1 X146.932 Y111.141 E.0241
G1 X151.118 Y115.327 E.22061
G1 X151.118 Y115.973 E.0241
G1 X146.932 Y111.787 E.22061
G1 X146.932 Y112.434 E.0241
G1 X151.118 Y116.62 E.22061
G1 X151.118 Y117.267 E.0241
G1 X146.932 Y113.081 E.22061
G1 X146.932 Y113.728 E.0241
G1 X151.118 Y117.914 E.22061
G1 X151.118 Y118.56 E.0241
G1 X146.932 Y114.374 E.22061
G1 X146.932 Y115.021 E.0241
G1 X151.118 Y119.207 E.22061
G1 X151.118 Y119.854 E.0241
G1 X146.932 Y115.668 E.22061
G1 X146.932 Y116.315 E.0241
G1 X151.118 Y120.501 E.22061
G1 X151.118 Y121.147 E.0241
G1 X146.932 Y116.961 E.22061
G1 X146.932 Y117.608 E.0241
G1 X151.118 Y121.794 E.22061
G1 X151.118 Y122.441 E.0241
G1 X146.932 Y118.255 E.22061
G1 X146.932 Y118.902 E.0241
G1 X151.118 Y123.088 E.22061
G1 X151.118 Y123.734 E.0241
G1 X146.932 Y119.548 E.22061
G1 X146.932 Y120.195 E.0241
G1 X151.118 Y124.381 E.22061
G1 X151.118 Y125.028 E.0241
G1 X146.932 Y120.842 E.22061
G1 X146.932 Y121.489 E.0241
G1 X151.118 Y125.675 E.22061
G1 X151.118 Y126.321 E.0241
G1 X146.932 Y122.135 E.22061
G1 X146.932 Y122.782 E.0241
G1 X151.118 Y126.968 E.22061
G1 X151.118 Y127.615 E.0241
G1 X146.932 Y123.429 E.22061
G1 X146.932 Y124.076 E.0241
G1 X151.118 Y128.262 E.22061
G1 X151.118 Y128.908 E.0241
G1 X146.932 Y124.722 E.22061
G1 X146.932 Y125.369 E.0241
G1 X151.118 Y129.555 E.22061
G1 X151.118 Y130.202 E.0241
G1 X146.932 Y126.016 E.22061
G1 X146.932 Y126.663 E.0241
G1 X151.118 Y130.849 E.22061
G1 X151.118 Y131.495 E.0241
G1 X146.932 Y127.309 E.22061
G1 X146.932 Y127.956 E.0241
G1 X151.118 Y132.142 E.22061
G1 X151.118 Y132.789 E.0241
G1 X146.932 Y128.603 E.22061
G1 X146.932 Y129.25 E.0241
G1 X151.118 Y133.436 E.22061
G1 X151.118 Y134.082 E.0241
G1 X146.932 Y129.896 E.22061
G1 X146.932 Y130.543 E.0241
G1 X151.118 Y134.729 E.22061
G1 X151.118 Y135.376 E.0241
G1 X146.932 Y131.19 E.22061
G1 X146.932 Y131.837 E.0241
G1 X151.118 Y136.023 E.22061
G1 X151.118 Y136.669 E.0241
G1 X146.932 Y132.483 E.22061
G1 X146.932 Y133.13 E.0241
G1 X151.118 Y137.316 E.22061
